site/public/static/about-principles-04.svg

<svg width="1344" height="759" viewBox="0 0 1344 759" xmlns="http://www.w3.org/2000/svg">
  <g clip-path="url(#Number=04__clip0)">
    <path d="M0 0h1344v759H0V0z" fill="#213A82"/>
    <path fill-rule="evenodd" clip-rule="evenodd" d="M1418.36 508.567c190.36-247.801 142.65-413.804 141.88-417.949-22.3-121.1-51.6-288.622-199.87-366.001-148.27-77.378-409.555.451-415.082 2.512-109.4 40.792-128.282 227.09-204.711 345.202-82.116 126.9-147.495 236.364-127.277 363.539 20.218 127.175 167.93 215.826 276.948 286.475 106.288 68.89 337.752 34.024 528.112-213.778z" fill="#577FFB"/>
    <path fill-rule="evenodd" clip-rule="evenodd" d="M528.581 307.318l.031-.046c28.712-42.425 74.521-62.472 133.651-62.472 59.1 0 104.774 20.033 133.121 62.517 27.411 40.529 40.239 94.637 40.239 160.683 0 66.748-12.81 121.248-40.239 161.803-28.347 42.484-74.021 62.517-133.121 62.517-59.13 0-104.939-20.047-133.651-62.472l-.031-.046-.031-.047c-27.028-40.542-39.647-95.02-39.647-161.755 0-66.033 12.636-120.118 39.647-160.635l.031-.047zM782.103 620.88c25.013-36.96 37.52-87.92 37.52-152.88 0-64.213-12.507-114.8-37.52-151.76-24.64-36.96-64.587-55.44-119.84-55.44s-95.387 18.48-120.4 55.44c-24.64 36.96-36.96 87.547-36.96 151.76 0 64.96 12.32 115.92 36.96 152.88 25.013 36.96 65.147 55.44 120.4 55.44s95.2-18.48 119.84-55.44zm-83.717-233.69l-.019-.048c-2.969-7.424-7.143-12.22-12.32-15.349-5.357-3.237-12.97-5.393-23.784-5.393-10.814 0-18.427 2.156-23.784 5.393-5.176 3.129-9.35 7.925-12.32 15.349l-.019.048-.019.047c-7.06 17.329-11.138 43.834-11.138 80.763 0 24.839 1.467 44.908 4.228 60.45 2.562 14.065 7.465 24.639 14.111 32.492 5.468 5.776 14.228 9.778 28.941 9.778 14.934 0 23.351-4.113 28.362-9.75l.011-.013.012-.013c7.018-7.861 12.104-18.423 14.667-32.494 2.761-15.542 4.228-35.611 4.228-60.45 0-36.929-4.077-63.434-11.137-80.763l-.02-.047zm22.677 144.09c-2.987 16.427-9.147 29.867-18.48 40.32-8.96 10.08-22.4 15.12-40.32 15.12s-31.547-5.04-40.88-15.12c-8.96-10.453-14.933-23.893-17.92-40.32-2.987-16.8-4.48-37.893-4.48-63.28 0-37.707 4.107-66.64 12.32-86.8 8.213-20.533 25.2-30.8 50.96-30.8s42.747 10.267 50.96 30.8c8.213 20.16 12.32 49.093 12.32 86.8 0 25.387-1.493 46.48-4.48 63.28zm135.393 89.92v-98.318L1041.08 258.8h131.3v247.52h45.92V621.2h-45.92V694h-127.76v-72.8H856.456zm204.164-16V678h95.76v-72.8h45.92v-82.88h-45.92V274.8h-106.96L872.456 527.92v77.28h188.164zm-87.364-82.88h94.084V380.08l-94.084 142.24zm29.764-16h48.32v-73.046l-48.32 73.046z" fill="#fff"/>
    <path fill-rule="evenodd" clip-rule="evenodd" d="M835.93-337.902c-13.808-51.625-62.491-106.244-142.595-141.826-79.889-35.487-190.451-51.696-326.378-26.767-136.066 24.955-220.395 71.68-270.792 112.145-47.286 37.967-64.986 70.614-67.762 75.733-.178.329-.295.544-.354.64l-1.312 2.129c-58.024 94.153-134.607 218.42-84.571 353.22 25.102 67.625 91.293 127.66 153.149 171.46 30.742 21.77 60.049 39.277 81.974 51.461 10.958 6.09 20.058 10.841 26.552 14.122a430.592 430.592 0 007.676 3.794c1.791.86 2.667 1.255 2.809 1.319l.021.009c44.937 17.817 97.197 1.057 155.689-26.353 16.001-7.498 31.805-15.45 47.866-23.532 13.51-6.798 27.202-13.687 41.348-20.476 30.355-14.567 61.394-27.94 92.46-36.274C682.632 137.78 788.293 104.88 849.094 11.409c29.862-45.907 34.503-104.559 27.456-166.727-6.279-55.387-21.668-112.362-35.611-163.982-1.697-6.284-3.373-12.489-5.009-18.602zM21.594-322.815c5.841-10.75 77.543-142.695 343.92-191.549 274.561-50.354 448.908 65.089 478.145 174.395a7631.991 7631.991 0 005.005 18.585c29.55 109.38 66.451 245.97 7.136 337.155C793.075 112.2 684.196 145.643 553.782 180.63c-44.143 11.842-88.638 34.22-132.055 56.056-75.967 38.206-148.632 74.751-210.329 50.289-4.899-1.943-224.741-106.752-276.732-246.817-51.404-138.485 27.058-265.777 84.61-359.146l1.962-3.185c.06-.095.177-.311.356-.641z" fill="#87A4FC"/>
  </g>
  <defs>
    <clipPath id="Number=04__clip0">
      <path d="M0 0h1344v759H0V0z" fill="#fff"/>
    </clipPath>
  </defs>
</svg>

<svg width="1344" height="759" viewBox="0 0 1344 759" fill="none" xmlns="http://www.w3.org/2000/svg">
<g clip-path="url(#clip0)">
<path d="M0 0H1344V759H0V0Z" fill="#2B4AAB"/>
<path fill-rule="evenodd" clip-rule="evenodd" d="M1418.36 508.568C1608.72 260.766 1561.01 94.7636 1560.24 90.6187C1537.94 -30.4823 1508.64 -198.004 1360.37 -275.382C1212.1 -352.761 950.815 -274.932 945.288 -272.87C835.888 -232.079 817.006 -45.7804 740.577 72.3315C658.461 199.231 593.082 308.695 613.3 435.871C633.518 563.046 781.23 651.696 890.248 722.346C996.536 791.235 1228 756.37 1418.36 508.568Z" fill="#577FFB"/>
<path fill-rule="evenodd" clip-rule="evenodd" d="M528.581 307.318L528.612 307.272C557.324 264.847 603.133 244.8 662.263 244.8C721.363 244.8 767.037 264.833 795.384 307.317C822.795 347.846 835.623 401.954 835.623 468C835.623 534.747 822.813 589.248 795.384 629.803C767.037 672.287 721.363 692.32 662.263 692.32C603.133 692.32 557.324 672.273 528.612 629.848L528.581 629.801L528.55 629.755C501.522 589.213 488.903 534.735 488.903 468C488.903 401.967 501.539 347.881 528.55 307.365L528.581 307.318ZM782.103 620.88C807.116 583.92 819.623 532.96 819.623 468C819.623 403.786 807.116 353.2 782.103 316.24C757.463 279.28 717.516 260.8 662.263 260.8C607.01 260.8 566.876 279.28 541.863 316.24C517.223 353.2 504.903 403.786 504.903 468C504.903 532.96 517.223 583.92 541.863 620.88C566.876 657.84 607.01 676.32 662.263 676.32C717.516 676.32 757.463 657.84 782.103 620.88ZM698.386 387.189L698.367 387.142C695.398 379.717 691.224 374.922 686.047 371.793C680.69 368.556 673.077 366.4 662.263 366.4C651.449 366.4 643.836 368.556 638.479 371.793C633.303 374.922 629.129 379.717 626.159 387.142L626.14 387.189L626.121 387.237C619.061 404.566 614.983 431.071 614.983 468C614.983 492.839 616.45 512.907 619.211 528.45C621.773 542.515 626.676 553.089 633.322 560.942C638.79 566.718 647.55 570.72 662.263 570.72C677.197 570.72 685.614 566.606 690.625 560.97L690.636 560.957L690.648 560.944C697.666 553.083 702.752 542.521 705.315 528.45C708.076 512.907 709.543 492.839 709.543 468C709.543 431.071 705.466 404.566 698.406 387.237L698.386 387.189ZM721.063 531.28C718.076 547.707 711.916 561.147 702.583 571.6C693.623 581.68 680.183 586.72 662.263 586.72C644.343 586.72 630.716 581.68 621.383 571.6C612.423 561.147 606.45 547.707 603.463 531.28C600.476 514.48 598.983 493.387 598.983 468C598.983 430.293 603.09 401.36 611.303 381.2C619.516 360.667 636.503 350.4 662.263 350.4C688.023 350.4 705.01 360.667 713.223 381.2C721.436 401.36 725.543 430.293 725.543 468C725.543 493.387 724.05 514.48 721.063 531.28ZM856.456 621.2V522.882L1041.08 258.8H1172.38V506.32H1218.3V621.2H1172.38V694H1044.62V621.2H856.456ZM1060.62 605.2V678H1156.38V605.2H1202.3V522.32H1156.38V274.8H1049.42L872.456 527.92V605.2H1060.62ZM973.256 522.32H1067.34V380.08L973.256 522.32ZM1003.02 506.32H1051.34V433.273L1003.02 506.32Z" fill="white"/>
<path fill-rule="evenodd" clip-rule="evenodd" d="M835.93 -337.901L835.93 -337.902C822.122 -389.526 773.439 -444.145 693.335 -479.727C613.446 -515.214 502.884 -531.423 366.957 -506.494C230.891 -481.54 146.562 -434.815 96.1652 -394.349C48.8795 -356.382 31.1787 -323.735 28.4032 -318.616C28.2249 -318.287 28.1082 -318.072 28.0492 -317.976L26.737 -315.847C-31.2874 -221.694 -107.87 -97.4272 -57.834 37.3731C-32.7325 104.997 33.4595 165.033 95.3147 208.833C126.057 230.602 155.364 248.109 177.289 260.293C188.247 266.383 197.347 271.135 203.841 274.416C207.088 276.056 209.678 277.326 211.517 278.209C213.308 279.069 214.184 279.464 214.326 279.528L214.347 279.537C259.284 297.354 311.544 280.594 370.036 253.185C386.037 245.687 401.841 237.735 417.902 229.653C431.412 222.855 445.104 215.965 459.25 209.177C489.605 194.609 520.644 181.236 551.71 172.903C682.632 137.78 788.293 104.88 849.094 11.4097C878.956 -34.4973 883.597 -93.1493 876.55 -155.318C870.271 -210.705 854.882 -267.68 840.939 -319.3C839.242 -325.584 837.566 -331.788 835.93 -337.901ZM21.594 -322.815C27.4353 -333.564 99.1366 -465.51 365.514 -514.363C640.075 -564.717 814.422 -449.274 843.659 -339.969C845.29 -333.873 846.964 -327.674 848.664 -321.384C878.214 -212.004 915.115 -75.4131 855.8 15.7718C793.075 112.2 684.196 145.644 553.782 180.629C509.639 192.472 465.144 214.85 421.727 236.685C345.76 274.891 273.095 311.436 211.398 286.974C206.499 285.032 -13.3432 180.222 -65.334 40.157C-116.738 -98.3272 -38.2763 -225.619 19.2757 -318.989C19.9328 -320.055 20.587 -321.116 21.2384 -322.173C21.2972 -322.269 21.4146 -322.485 21.594 -322.815Z" fill="#87A4FC"/>
</g>
<defs>
<clipPath id="clip0">
<path d="M0 0H1344V759H0V0Z" fill="white"/>
</clipPath>
</defs>
</svg>
